X:2
T:太湖船变奏曲 ("Boat on Tai Lake" and Variations)
T:(Hulusi in Bb 1)
C:江苏民歌
C:Variations by 刘永泰
C:Arranged by 罗子俊
M:2/4
L:1/8
Q:1/4=78
%%barnumbers 0
%%measurenb 0
V:1 clef=treble
%%jianpu 1
%%MIDI program 5
K:Bbmaj
%%visualtranspose -10_of_semitones
d2 f2 | d2 (cd) | f2 (dc) | d4 | d2 f2 | (dc) B2 | 
c2 (df) | c3 d | B2 (BG) | F3 G | B2 (cd) | B4 | 
c3 d | c3 d | f2 (gf) | d4 | d2 f2 | (dc) B2 | 
c2 (df) | c3 d | B2 (BG) | F3 G | B2 (cd) | B4 ||
d2 f2 | d2 (cd) | f2 (dc) | d4 | d2 f2 | (dc) B2 | 
c2 (df) | c3 d | B2 (BG) | F3 G | B2 (cd) | B4 | 
c3 d | c3 d | f2 (gf) | d4 | d2 f2 | (dc) B2 | 
c2 (df) | c3 d | B2 (BG) | F3 G | B2 (cd) | B4 ||
d3/2c/2 df | cBcd | fg/2f/2 d/2f/2c | d4 | d3/2c/2 df | cd/2c/2 B2 | 
cB/2c/2 d/2c/2d/2f/2 | c3 d | B3/2c/2 BG | FzFG | BB c/2B/2c/2d/2 | B4 | 
c3/2B/2 cd | cB/2c/2 dc/2d/2 | f3/2f/2 gf | d4 | d3/2c/2 df | cd/2c/2 B2 | 
cB/2c/2 d/2c/2d/2f/2 | c3 d | B3/2c/2 BG | FzFG | BB c/2B/2c/2d/2 | B4 |]

